images/ico_flag_en.svg

<svg width="20" height="20" viewBox="0 0 20 20" fill="none" xmlns="http://www.w3.org/2000/svg">
<g clip-path="url(#clip0_802_17195)">
<path d="M0 10C0 4.47715 4.47715 0 10 0C15.5228 0 20 4.47715 20 10C20 15.5228 15.5228 20 10 20C4.47715 20 0 15.5228 0 10Z" fill="#00247D"/>
<path d="M8.19995 0.197632H7.19995L7.19994 6.13488L3.20804 3.43944L2.97858 3.28009C2.18124 4.11223 1.52631 5.08193 1.05298 6.15001L1.27514 6.30204L2.60149 7.19763H0.199951V8.19763H8.19995V0.197632Z" fill="white"/>
<path d="M8.19995 19.8008H7.19995L7.19994 13.8635L3.20804 16.559L2.97858 16.7183C2.18124 15.8862 1.52631 14.9165 1.05298 13.8484L1.27514 13.6964L2.60149 12.8008H0.199951V11.8008H8.19995V19.8008Z" fill="white"/>
<path d="M12.8 0.197632H11.8V8.19763H19.8V7.19763H17.3985L18.7249 6.30204L18.947 6.15001C18.4737 5.08193 17.8188 4.11223 17.0214 3.28009L16.792 3.43944L12.8001 6.13488L12.8 0.197632Z" fill="white"/>
<path d="M11.8 19.8008H12.8L12.8001 13.8635L16.792 16.559L17.0214 16.7183C17.8188 15.8862 18.4737 14.9165 18.947 13.8484L18.7249 13.6964L17.3985 12.8008H19.8V11.8008H11.8V19.8008Z" fill="white"/>
<path d="M11.8 0H8.19995V8.19763L0 8.19763V11.8024H8.19995V20H11.8V11.8024H20V8.19763H11.8L11.8 0Z" fill="#CF142B"/>
<path d="M1.88841 4.63538C1.65238 4.98737 1.43812 5.35518 1.24756 5.7369L3.41432 7.19762H5.69993L1.88841 4.63538Z" fill="#CF142B"/>
<path d="M18.7524 14.2631C18.5619 14.6448 18.3476 15.0126 18.1116 15.3646L14.3001 12.8024H16.5857L18.7524 14.2631Z" fill="#CF142B"/>
<path d="M17.3672 3.66028C17.6362 3.97133 17.8863 4.29914 18.1158 4.64192L14.3274 7.19755L12.8 7.19756V6.67705L17.3672 3.66028Z" fill="#CF142B"/>
<path d="M1.88423 15.3581C2.1137 15.7009 2.3638 16.0287 2.63275 16.3397L7.19995 13.323V12.8024L5.67265 12.8025L1.88423 15.3581Z" fill="#CF142B"/>
</g>
<rect x="0.5" y="0.5" width="19" height="19" rx="9.5" stroke="#CCCCCC"/>
<defs>
<clipPath id="clip0_802_17195">
<rect width="20" height="20" rx="10" fill="white"/>
</clipPath>
</defs>
</svg>

<svg width="20" height="20" fill="none" xmlns="http://www.w3.org/2000/svg"><g clip-path="url(#clip0_802_17195)"><path d="M0 10C0 4.477 4.477 0 10 0s10 4.477 10 10-4.477 10-10 10S0 15.523 0 10z" fill="#00247D"/><path d="M8.2.198h-1v5.937L3.208 3.439l-.23-.159a10.016 10.016 0 00-1.925 2.87l.222.152 1.326.896H.2v1h8v-8zm0 19.602h-1v-5.937L3.208 16.56l-.23.16a10.015 10.015 0 01-1.925-2.87l.222-.153 1.326-.895H.2v-1h8v8zM12.8.198h-1v8h8v-1h-2.402l1.327-.896.222-.152a10.014 10.014 0 00-1.926-2.87l-.229.16L12.8 6.134V.198zm-1 19.602h1v-5.937l3.992 2.696.23.16a10.013 10.013 0 001.925-2.87l-.222-.153-1.327-.895H19.8v-1h-8v8z" fill="#fff"/><path d="M11.8 0H8.2v8.198H0v3.604h8.2V20h3.6v-8.198H20V8.198h-8.2V0z" fill="#CF142B"/><path d="M1.888 4.635a9.88 9.88 0 00-.64 1.102l2.166 1.46H5.7L1.888 4.636zm16.864 9.628a9.88 9.88 0 01-.64 1.102L14.3 12.802h2.286l2.166 1.461zM17.367 3.66c.27.311.52.64.749.982l-3.789 2.556H12.8v-.521l4.567-3.017zM1.884 15.358c.23.343.48.67.749.982L7.2 13.323v-.52H5.673l-3.789 2.555z" fill="#CF142B"/></g><rect x=".5" y=".5" width="19" height="19" rx="9.5" stroke="#CCC"/><defs><clipPath id="clip0_802_17195"><rect width="20" height="20" rx="10" fill="#fff"/></clipPath></defs></svg>
